fs/text_align_distributed_20_regular.svg

<svg viewBox="0 0 20 20" fill="none" xmlns="http://www.w3.org/2000/svg" height="1em" width="1em">
  <path d="M4.35355 5.64645L3.70711 5L17.5 5C17.7761 5 18 4.77614 18 4.5C18 4.22386 17.7761 4 17.5 4H6.5C6.50016 4 6.49984 4 6.5 4L3.70711 4L4.35355 3.35355C4.54882 3.15829 4.54882 2.84171 4.35355 2.64645C4.15829 2.45118 3.84171 2.45118 3.64645 2.64645L2.14645 4.14645C1.95118 4.34171 1.95118 4.65829 2.14645 4.85355L3.64645 6.35355C3.84171 6.54882 4.15829 6.54882 4.35355 6.35355C4.54882 6.15829 4.54882 5.84171 4.35355 5.64645ZM2 9.5C2 9.22386 2.22386 9 2.5 9H17.5C17.7761 9 18 9.22386 18 9.5C18 9.77614 17.7761 10 17.5 10H2.5C2.22386 10 2 9.77614 2 9.5ZM2.5 14H16.2929L15.6464 13.3536C15.4512 13.1583 15.4512 12.8417 15.6464 12.6464C15.8417 12.4512 16.1583 12.4512 16.3536 12.6464L17.8536 14.1464C18.0488 14.3417 18.0488 14.6583 17.8536 14.8536L16.3536 16.3536C16.1583 16.5488 15.8417 16.5488 15.6464 16.3536C15.4512 16.1583 15.4512 15.8417 15.6464 15.6464L16.2929 15H2.5C2.22386 15 2 14.7761 2 14.5C2 14.2239 2.22386 14 2.5 14Z" fill="#212121"/>
</svg>

<svg viewBox="0 0 20 20" fill="none" xmlns="http://www.w3.org/2000/svg" height="1em" width="1em">
  <path d="M4.354 5.646 3.707 5H17.5a.5.5 0 0 0 0-1H3.707l.647-.646a.5.5 0 1 0-.708-.708l-1.5 1.5a.5.5 0 0 0 0 .708l1.5 1.5a.5.5 0 1 0 .708-.708ZM2 9.5a.5.5 0 0 1 .5-.5h15a.5.5 0 0 1 0 1h-15a.5.5 0 0 1-.5-.5Zm.5 4.5h13.793l-.647-.646a.5.5 0 0 1 .708-.708l1.5 1.5a.5.5 0 0 1 0 .708l-1.5 1.5a.5.5 0 0 1-.708-.708l.647-.646H2.5a.5.5 0 0 1 0-1Z" fill="#212121"/>
</svg>
